assets/icon.svg

<svg clip-rule="evenodd" stroke-linecap="round" stroke-linejoin="round" stroke-miterlimit="10" viewBox="0 0 300 300" xmlns="http://www.w3.org/2000/svg" xmlns:xlink="http://www.w3.org/1999/xlink"><defs><path id="a" d="m89.9777 40v49.9777h-49.9777v50.4673c.198 65.947 53.6087 119.357 119.555 119.555h50.467v-48.998c.602 27.312 22.662 48.887 49.978 48.998v-100.445c-.198-65.9281-53.627-119.3311-119.555-119.555zm.49 50.4677h119.0643v119.5543h-119.0643z"/><linearGradient id="b" gradientTransform="matrix(2.6861 0 0 15.6729 40 40)" gradientUnits="userSpaceOnUse" x1="0" x2="81.903" y1="7.0185" y2="7.0185"><stop offset=".192843" stop-color="#0f55d4"/><stop offset=".713635" stop-color="#8900d7"/></linearGradient><clipPath id="c" clip-rule="nonzero"><use clip-rule="nonzero" xlink:href="#a"/></clipPath></defs><use xlink:href="#a"/><g clip-path="url(#c)"><path d="m40 40h220v220h-220z" fill="url(#b)"/></g></svg>

<?xml version="1.0" encoding="UTF-8" standalone="no"?>
<!DOCTYPE svg PUBLIC "-//W3C//DTD SVG 1.1//EN" "http://www.w3.org/Graphics/SVG/1.1/DTD/svg11.dtd">
<!-- Created with Vectornator (http://vectornator.io/) -->
<svg height="100%" stroke-miterlimit="10" style="fill-rule:nonzero;clip-rule:evenodd;stroke-linecap:round;stroke-linejoin:round;" version="1.1" viewBox="0 0 300 300" width="100%" xml:space="preserve" xmlns="http://www.w3.org/2000/svg" xmlns:vectornator="http://vectornator.io" xmlns:xlink="http://www.w3.org/1999/xlink">
<defs>
<path d="M89.9777 40L89.9777 89.9777L40 89.9777L40 140.445C40.198 206.392 93.6087 259.802 159.555 260L210.022 260L210.022 211.002C210.624 238.314 232.684 259.889 260 260L260 159.555C259.802 93.6269 206.373 40.2239 140.445 40L89.9777 40ZM90.4677 90.4677L209.532 90.4677L209.532 210.022L90.4677 210.022L90.4677 90.4677Z" id="Fill"/>
<linearGradient gradientTransform="matrix(2.6861 0 0 15.6729 40 40)" gradientUnits="userSpaceOnUse" id="LinearGradient" x1="0" x2="81.903" y1="7.0185" y2="7.0185">
<stop offset="0.192843" stop-color="#0f55d4"/>
<stop offset="0.713635" stop-color="#8900d7"/>
</linearGradient>
</defs>
<g id="Layer-1" vectornator:layerName="Layer 1">
<use fill="#000000" fill-rule="nonzero" opacity="1" stroke="none" vectornator:layerName="Curve 1" xlink:href="#Fill"/>
<clipPath clip-rule="nonzero" id="ClipPath">
<use xlink:href="#Fill"/>
</clipPath>
<g clip-path="url(#ClipPath)">
<path d="M40 40L260 40L260 260L40 260L40 40Z" fill="url(#LinearGradient)" fill-rule="nonzero" opacity="1" stroke="none" vectornator:layerName="path"/>
</g>
</g>
</svg>
